X: 13607
T: Fog Is Lifting, The
R: jig
M: 6/8
K: Gmajor
EAA Bcd|eaf ged|BGG dGG|g3 dBG|
AEA BAB|cBc deg|abg a2 g|fad e2 d|
cAA Bcd|eaf ged|BGG dGG|gfg dBG|
AEA BAB|cde deg|abg a2 g|fad e3|
|:aAA Bcd|eaf gfe|dgg bgg|d'bg bag|a/b/c'a bgd|
cBc def|1 gGG BAB|def g3:|2 gdc BAG|cBA GED||

